;FLAVOR:Repetier
;TIME:6914
;MINX:-66.71
;MINY:-33.71
;MINZ:0.3
;MAXX:66.71
;MAXY:33.711
;MAXZ:23.9
;MKSPREVIEWPROCESSED
; Postprocessed by [MKS WiFi plugin](https://github.com/Jeredian/mks-wifi-plugin)
; simage=0
; gimage=0
;Generated with Cura_SteamEngine 4.13.1
M82 ;absolute extrusion mode
G21
G90
M82
M107 T0
M190 S60
M109 S210.0 T0
G28
G92 E0
G0 E3 F200
G92 E0

G92 E0
G92 E0
G1 F1500 E-6.5
;LAYER_COUNT:119
;LAYER:0
M107
G0 F3600 X-61.807 Y-33.71 Z0.3
;TYPE:SKIRT
G1 F1500 E0
G1 F2100 X61.959 Y-33.709 E4.3223
G1 X62.534 Y-33.701 E4.34238
G1 X63.035 Y-33.669 E4.35991
G1 X63.534 Y-33.591 E4.37755
G1 X64.159 Y-33.384 E4.40054
G1 X64.616 Y-33.168 E4.4182
G1 X65.097 Y-32.843 E4.43847
G1 X65.481 Y-32.515 E4.45611
G1 X65.846 Y-32.08 E4.47594
G1 X66.048 Y-31.79 E4.48828
G1 X66.303 Y-31.354 E4.50592
G1 X66.545 Y-30.66 E4.53159
G1 X66.62 Y-30.325 E4.54358
G1 X66.697 Y-29.678 E4.56633
G1 X66.71 Y-28.828 E4.59602
G1 X66.709 Y28.92 E6.61276
G1 X66.702 Y29.474 E6.63211
G1 X66.663 Y30.055 E6.65245
G1 X66.585 Y30.555 E6.67012
G1 X66.322 Y31.293 E6.69748
G1 X66.093 Y31.744 E6.71514
G1 X65.801 Y32.155 E6.73275
G1 X65.464 Y32.532 E6.75041
G1 X64.983 Y32.925 E6.7721
G1 X64.558 Y33.2 E6.78978
G1 X64.001 Y33.445 E6.81103
G1 X63.518 Y33.594 E6.82868
G1 X63.012 Y33.673 E6.84657
G1 X62.277 Y33.709 E6.87227
G1 X-61.938 Y33.711 E11.21025
G1 X-62.503 Y33.703 E11.22998
G1 X-63.041 Y33.668 E11.24881
G1 X-63.541 Y33.589 E11.26649
G1 X-64.155 Y33.384 E11.28909
G1 X-64.613 Y33.169 E11.30676
G1 X-65.098 Y32.842 E11.32719
G1 X-65.482 Y32.514 E11.34483
G1 X-65.846 Y32.08 E11.36461
G1 X-66.051 Y31.786 E11.37713
G1 X-66.306 Y31.35 E11.39477
G1 X-66.49 Y30.879 E11.41242
G1 X-66.627 Y30.284 E11.43375
G1 X-66.697 Y29.671 E11.45529
G1 X-66.71 Y28.791 E11.48603
G1 X-66.709 Y-28.958 E13.50281
G1 X-66.701 Y-29.546 E13.52334
G1 X-66.668 Y-30.045 E13.54081
G1 X-66.588 Y-30.544 E13.55846
G1 X-66.39 Y-31.142 E13.58046
G1 X-66.177 Y-31.6 E13.5981
G1 X-65.843 Y-32.097 E13.61901
G1 X-65.515 Y-32.481 E13.63665
G1 X-65.089 Y-32.84 E13.6561
G1 X-64.801 Y-33.042 E13.66839
G1 X-64.365 Y-33.299 E13.68606
G1 X-63.654 Y-33.546 E13.71235
G1 X-63.315 Y-33.621 E13.72447
G1 X-62.675 Y-33.697 E13.74698
G1 X-61.807 Y-33.71 E13.7773
G1 F1500 E7.2773
;MESH:JoyBox.3MF
G0 F3600 X-63.566 Y-30.843
G0 X-62.89 Y-29.574
G0 X-62.54 Y29.813
G1 F1500 E13.7773
G0 F3600 X-62.556 Y29.911
;TYPE:WALL-INNER
G1 F2100 X-62.803 Y29.824 E13.78644
G1 X-62.904 Y29.639 E13.7938
G1 X-62.91 Y29.571 E13.79619
G1 X-62.909 Y-29.577 E15.86182
G1 X-62.824 Y-29.803 E15.87025
G1 X-62.639 Y-29.904 E15.87761
G1 X-62.571 Y-29.91 E15.88
G1 X62.577 Y-29.909 E20.25056
G1 X62.803 Y-29.824 E20.25899
G1 X62.904 Y-29.639 E20.26635
G1 X62.91 Y-29.571 E20.26874
G1 X62.909 Y29.559 E22.33374
G1 X62.862 Y29.742 E22.34034
G1 X62.774 Y29.841 E22.34497
G1 X62.585 Y29.91 E22.35199
G1 X-62.556 Y29.911 E26.72231
G0 F3600 X-62.592 Y30.311
;TYPE:WALL-OUTER
G1 F2100 X-62.844 Y30.266 E26.73125
G1 X-63.069 Y30.132 E26.7404
G1 X-63.223 Y29.94 E26.74899
G1 X-63.299 Y29.723 E26.75702
G1 X-63.31 Y29.593 E26.76158
G1 X-63.309 Y-29.612 E28.8292
G1 X-63.266 Y-29.844 E28.83744
G1 X-63.132 Y-30.069 E28.84659
G1 X-62.94 Y-30.223 E28.85518
G1 X-62.723 Y-30.299 E28.86321
G1 X-62.593 Y-30.31 E28.86777
G1 X62.612 Y-30.309 E33.24032
G1 X62.844 Y-30.266 E33.24856
G1 X63.069 Y-30.132 E33.25771
G1 X63.223 Y-29.94 E33.2663
G1 X63.299 Y-29.723 E33.27433
G1 X63.31 Y-29.593 E33.27889
G1 X63.309 Y29.609 E35.34641
G1 X63.225 Y29.936 E35.3582
G1 X63.011 Y30.178 E35.36948
G1 X62.697 Y30.303 E35.38128
G1 X62.6 Y30.31 E35.38468
G1 X-62.592 Y30.311 E39.75678
G0 F3600 X-62.789 Y30.276
G0 X-62.52 Y29.51
;TYPE:SKIN
G1 F2100 X-62.519 Y-29.507 E41.81784
G1 X-62.514 Y-29.52 E41.81832
G1 X62.507 Y-29.519 E46.18445
G1 X62.52 Y-29.514 E46.18494
G1 X62.519 Y29.509 E48.2462
G1 X62.514 Y29.52 E48.24663
G1 X-62.489 Y29.521 E52.61212
G1 X-62.52 Y29.51 E52.61327
G0 F3600 X-62.339 Y28.736
G1 F2100 X-61.734 Y29.34 E52.64313
G0 F3600 X-61.168 Y29.34
G1 F2100 X-62.339 Y28.17 E52.70094
G0 F3600 X-62.339 Y27.604
G1 F2100 X-60.603 Y29.34 E52.78668
G0 F3600 X-60.037 Y29.34
G1 F2100 X-62.339 Y27.039 E52.90034
G0 F3600 X-62.339 Y26.473
G1 F2100 X-59.471 Y29.34 E53.04197
G0 F3600 X-58.906 Y29.34
G1 F2100 X-62.339 Y25.907 E53.21152
G0 F3600 X-62.339 Y25.341
G1 F2100 X-58.34 Y29.34 E53.40902
G0 F3600 X-57.774 Y29.34
G1 F2100 X-62.339 Y24.776 E53.63446
G0 F3600 X-62.339 Y24.21
G1 F2100 X-57.209 Y29.34 E53.88782
G0 F3600 X-56.643 Y29.34
G1 F2100 X-62.339 Y23.644 E54.16914
G0 F3600 X-62.339 Y23.079
G1 F2100 X-56.077 Y29.34 E54.47839
G0 F3600 X-55.512 Y29.34
G1 F2100 X-62.339 Y22.513 E54.81557
G0 F3600 X-62.339 Y21.947
G1 F2100 X-54.946 Y29.34 E55.1807
G0 F3600 X-54.38 Y29.34
G1 F2100 X-62.339 Y21.382 E55.57376
G0 F3600 X-62.339 Y20.816
G1 F2100 X-53.815 Y29.34 E55.99475
G0 F3600 X-53.249 Y29.34
G1 F2100 X-62.339 Y20.25 E56.44369
G0 F3600 X-62.339 Y19.685
G1 F2100 X-52.683 Y29.34 E56.92057
G0 F3600 X-52.118 Y29.34
G1 F2100 X-62.339 Y19.119 E57.42537
G0 F3600 X-62.339 Y18.553
G1 F2100 X-51.552 Y29.34 E57.95813
G0 F3600 X-50.986 Y29.34
G1 F2100 X-62.339 Y17.988 E58.51881
G0 F3600 X-62.339 Y17.422
G1 F2100 X-50.42 Y29.34 E59.10745
G0 F3600 X-49.855 Y29.34
G1 F2100 X-62.339 Y16.856 E59.72402
G0 F3600 X-62.339 Y16.291
G1 F2100 X-49.289 Y29.34 E60.36852
G0 F3600 X-48.723 Y29.34
G1 F2100 X-62.339 Y15.725 E61.04097
G0 F3600 X-62.339 Y15.159
G1 F2100 X-48.158 Y29.34 E61.74136
G0 F3600 X-47.592 Y29.34
G1 F2100 X-62.339 Y14.593 E62.46969
G0 F3600 X-62.339 Y14.028
G1 F2100 X-47.026 Y29.34 E63.22596
G0 F3600 X-46.461 Y29.34
G1 F2100 X-62.339 Y13.462 E64.01015
G0 F3600 X-62.339 Y12.896
G1 F2100 X-45.895 Y29.34 E64.8223
G0 F3600 X-45.329 Y29.34
G1 F2100 X-62.339 Y12.331 E65.66238
G0 F3600 X-62.339 Y11.765
G1 F2100 X-44.764 Y29.34 E66.53039
G0 F3600 X-44.198 Y29.34
G1 F2100 X-62.339 Y11.199 E67.42635
G0 F3600 X-62.339 Y10.634
G1 F2100 X-43.632 Y29.34 E68.35024
G0 F3600 X-43.067 Y29.34
G1 F2100 X-62.339 Y10.068 E69.30206
G0 F3600 X-62.339 Y9.502
G1 F2100 X-42.501 Y29.34 E70.28184
G0 F3600 X-41.935 Y29.34
G1 F2100 X-62.339 Y8.937 E71.28954
G0 F3600 X-62.339 Y8.371
G1 F2100 X-41.369 Y29.34 E72.3252
G0 F3600 X-40.804 Y29.34
G1 F2100 X-62.339 Y7.805 E73.38879
G0 F3600 X-62.339 Y7.24
G1 F2100 X-40.238 Y29.34 E74.4803
G0 F3600 X-39.672 Y29.34
G1 F2100 X-62.339 Y6.674 E75.59977
G0 F3600 X-62.339 Y6.108
G1 F2100 X-39.107 Y29.34 E76.74717
G0 F3600 X-38.541 Y29.34
G1 F2100 X-62.339 Y5.543 E77.9225
G0 F3600 X-62.339 Y4.977
G1 F2100 X-37.975 Y29.34 E79.12579
G0 F3600 X-37.41 Y29.34
G1 F2100 X-62.339 Y4.411 E80.357
G0 F3600 X-62.339 Y3.845
G1 F2100 X-36.844 Y29.34 E81.61617
G0 F3600 X-36.278 Y29.34
G1 F2100 X-62.339 Y3.28 E82.90326
G0 F3600 X-62.339 Y2.714
G1 F2100 X-35.713 Y29.34 E84.21829
G0 F3600 X-35.147 Y29.34
G1 F2100 X-62.339 Y2.148 E85.56127
G0 F3600 X-62.339 Y1.583
G1 F2100 X-34.581 Y29.34 E86.93218
G0 F3600 X-34.016 Y29.34
G1 F2100 X-62.339 Y1.017 E88.33102
G0 F3600 X-62.339 Y0.451
G1 F2100 X-33.45 Y29.34 E89.75781
G0 F3600 X-32.884 Y29.34
G1 F2100 X-62.338 Y-.113 E91.21248
G0 F3600 X-62.338 Y-.678
G1 F2100 X-32.319 Y29.34 E92.69506
G0 F3600 X-31.753 Y29.34
G1 F2100 X-62.338 Y-1.244 E94.20559
G0 F3600 X-62.338 Y-1.81
G1 F2100 X-31.187 Y29.34 E95.74407
G0 F3600 X-30.621 Y29.34
G1 F2100 X-62.338 Y-2.375 E97.31049
G0 F3600 X-62.338 Y-2.941
G1 F2100 X-30.056 Y29.34 E98.90483
G0 F3600 X-29.49 Y29.34
G1 F2100 X-62.338 Y-3.507 E100.52713
G0 F3600 X-62.338 Y-4.072
G1 F2100 X-28.924 Y29.34 E102.17736
G0 F3600 X-28.359 Y29.34
G1 F2100 X-62.338 Y-4.638 E103.85552
G0 F3600 X-62.338 Y-5.204
G1 F2100 X-27.793 Y29.34 E105.56163
G0 F3600 X-27.227 Y29.34
G1 F2100 X-62.338 Y-5.769 E107.29567
G0 F3600 X-62.338 Y-6.335
G1 F2100 X-26.662 Y29.34 E109.05764
G0 F3600 X-26.096 Y29.34
G1 F2100 X-62.338 Y-6.901 E110.84756
G0 F3600 X-62.338 Y-7.467
G1 F2100 X-25.53 Y29.34 E112.66544
G0 F3600 X-24.965 Y29.34
G1 F2100 X-62.338 Y-8.032 E114.51122
G0 F3600 X-62.338 Y-8.598
G1 F2100 X-24.399 Y29.34 E116.38496
G0 F3600 X-23.833 Y29.34
G1 F2100 X-62.338 Y-9.164 E118.28665
G0 F3600 X-62.338 Y-9.729
G1 F2100 X-23.268 Y29.34 E120.21624
G0 F3600 X-22.702 Y29.34
G1 F2100 X-62.338 Y-10.295 E122.17379
G0 F3600 X-62.338 Y-10.861
G1 F2100 X-22.136 Y29.34 E124.15929
G0 F3600 X-21.57 Y29.34
G1 F2100 X-62.338 Y-11.426 E126.17273
G0 F3600 X-62.338 Y-11.992
G1 F2100 X-21.005 Y29.34 E128.21409
G0 F3600 X-20.439 Y29.34
G1 F2100 X-62.338 Y-12.558 E130.2834
G0 F3600 X-62.338 Y-13.123
G1 F2100 X-19.873 Y29.34 E132.38065
G0 F3600 X-19.308 Y29.34
G1 F2100 X-62.338 Y-13.689 E134.50582
G0 F3600 X-62.338 Y-14.255
G1 F2100 X-18.742 Y29.34 E136.65895
G0 F3600 X-18.176 Y29.34
G1 F2100 X-62.338 Y-14.82 E138.84001
G0 F3600 X-62.338 Y-15.386
G1 F2100 X-17.611 Y29.34 E141.049
G0 F3600 X-17.045 Y29.34
G1 F2100 X-62.338 Y-15.952 E143.28594
G0 F3600 X-62.338 Y-16.518
G1 F2100 X-16.479 Y29.34 E145.55083
G0 F3600 X-15.914 Y29.34
G1 F2100 X-62.338 Y-17.083 E147.84363
G0 F3600 X-62.338 Y-17.649
G1 F2100 X-15.348 Y29.34 E150.16439
G0 F3600 X-14.782 Y29.34
G1 F2100 X-62.338 Y-18.215 E152.5131
G0 F3600 X-62.338 Y-18.78
G1 F2100 X-14.217 Y29.34 E154.88971
G0 F3600 X-13.651 Y29.34
G1 F2100 X-62.338 Y-19.346 E157.29428
G0 F3600 X-62.338 Y-19.912
G1 F2100 X-13.085 Y29.34 E159.7268
G0 F3600 X-12.52 Y29.34
G1 F2100 X-62.338 Y-20.477 E162.18722
G0 F3600 X-62.338 Y-21.043
G1 F2100 X-11.954 Y29.34 E164.6756
G0 F3600 X-11.388 Y29.34
G1 F2100 X-62.338 Y-21.609 E167.19193
G0 F3600 X-62.338 Y-22.174
G1 F2100 X-10.822 Y29.34 E169.7362
G0 F3600 X-10.257 Y29.34
G1 F2100 X-62.338 Y-22.74 E172.30839
G0 F3600 X-62.338 Y-23.306
G1 F2100 X-9.691 Y29.34 E174.90854
G0 F3600 X-9.125 Y29.34
G1 F2100 X-62.338 Y-23.871 E177.53661
G0 F3600 X-62.338 Y-24.437
G1 F2100 X-8.56 Y29.34 E180.19262
G0 F3600 X-7.994 Y29.34
G1 F2100 X-62.338 Y-25.003 E182.87658
G0 F3600 X-62.338 Y-25.568
G1 F2100 X-7.428 Y29.34 E185.58847
G0 F3600 X-6.863 Y29.34
G1 F2100 X-62.338 Y-26.134 E188.32828
G0 F3600 X-62.338 Y-26.7
G1 F2100 X-6.297 Y29.34 E191.09606
G0 F3600 X-5.731 Y29.34
G1 F2100 X-62.338 Y-27.266 E193.89178
G0 F3600 X-62.338 Y-27.831
G1 F2100 X-5.166 Y29.34 E196.71541
G0 F3600 X-4.6 Y29.34
G1 F2100 X-62.338 Y-28.397 E199.567
G0 F3600 X-62.338 Y-28.963
G1 F2100 X-4.034 Y29.34 E202.44654
G0 F3600 X-3.469 Y29.34
G1 F2100 X-62.149 Y-29.339 E205.34464
G0 F3600 X-61.583 Y-29.339
G1 F2100 X-2.903 Y29.34 E208.24275
G0 F3600 X-2.337 Y29.34
G1 F2100 X-61.017 Y-29.339 E211.14086
G0 F3600 X-60.451 Y-29.339
G1 F2100 X-1.772 Y29.34 E214.03895
G0 F3600 X-1.206 Y29.34
G1 F2100 X-59.886 Y-29.339 E216.93706
G0 F3600 X-59.32 Y-29.339
G1 F2100 X-.64 Y29.34 E219.83516
G0 F3600 X-0.074 Y29.34
G1 F2100 X-58.754 Y-29.339 E222.73327
G0 F3600 X-58.189 Y-29.339
G1 F2100 X0.49 Y29.339 E225.63133
G0 F3600 X1.055 Y29.339
G1 F2100 X-57.623 Y-29.339 E228.52937
G0 F3600 X-57.057 Y-29.339
G1 F2100 X1.621 Y29.339 E231.4274
G0 F3600 X2.187 Y29.339
G1 F2100 X-56.492 Y-29.339 E234.32546
G0 F3600 X-55.926 Y-29.339
G1 F2100 X2.752 Y29.339 E237.2235
G0 F3600 X3.318 Y29.339
G1 F2100 X-55.36 Y-29.339 E240.12153
G0 F3600 X-54.795 Y-29.339
G1 F2100 X3.884 Y29.339 E243.01959
G0 F3600 X4.449 Y29.339
G1 F2100 X-54.229 Y-29.339 E245.91763
G0 F3600 X-53.663 Y-29.339
G1 F2100 X5.015 Y29.339 E248.81566
G0 F3600 X5.581 Y29.339
G1 F2100 X-53.098 Y-29.339 E251.71372
G0 F3600 X-52.532 Y-29.339
G1 F2100 X6.146 Y29.339 E254.61176
G0 F3600 X6.712 Y29.339
G1 F2100 X-51.966 Y-29.339 E257.50979
G0 F3600 X-51.401 Y-29.339
G1 F2100 X7.278 Y29.339 E260.40785
G0 F3600 X7.843 Y29.339
G1 F2100 X-50.835 Y-29.339 E263.30589
G0 F3600 X-50.269 Y-29.339
G1 F2100 X8.409 Y29.339 E266.20392
G0 F3600 X8.975 Y29.339
G1 F2100 X-49.703 Y-29.339 E269.10196
G0 F3600 X-49.138 Y-29.339
G1 F2100 X9.54 Y29.339 E271.99999
G0 F3600 X10.106 Y29.339
G1 F2100 X-48.572 Y-29.339 E274.89802
G0 F3600 X-48.006 Y-29.339
G1 F2100 X10.672 Y29.339 E277.79606
G0 F3600 X11.238 Y29.339
G1 F2100 X-47.441 Y-29.339 E280.69412
G0 F3600 X-46.875 Y-29.339
G1 F2100 X11.803 Y29.339 E283.59215
G0 F3600 X12.369 Y29.339
G1 F2100 X-46.309 Y-29.339 E286.49019
G0 F3600 X-45.744 Y-29.339
G1 F2100 X12.935 Y29.339 E289.38825
G0 F3600 X13.5 Y29.339
G1 F2100 X-45.178 Y-29.339 E292.28628
G0 F3600 X-44.612 Y-29.339
G1 F2100 X14.066 Y29.339 E295.18432
G0 F3600 X14.632 Y29.339
G1 F2100 X-44.047 Y-29.339 E298.08238
G0 F3600 X-43.481 Y-29.339
G1 F2100 X15.197 Y29.339 E300.98041
G0 F3600 X15.763 Y29.339
G1 F2100 X-42.915 Y-29.339 E303.87845
G0 F3600 X-42.35 Y-29.339
G1 F2100 X16.329 Y29.339 E306.77651
G0 F3600 X16.894 Y29.339
G1 F2100 X-41.784 Y-29.339 E309.67454
G0 F3600 X-41.218 Y-29.339
G1 F2100 X17.46 Y29.339 E312.57258
G0 F3600 X18.026 Y29.339
G1 F2100 X-40.652 Y-29.339 E315.47061
G0 F3600 X-40.087 Y-29.339
G1 F2100 X18.591 Y29.339 E318.36865
G0 F3600 X19.157 Y29.339
G1 F2100 X-39.521 Y-29.339 E321.26668
G0 F3600 X-38.955 Y-29.339
G1 F2100 X19.723 Y29.339 E324.16472
G0 F3600 X20.289 Y29.339
G1 F2100 X-38.39 Y-29.339 E327.06278
G0 F3600 X-37.824 Y-29.339
G1 F2100 X20.854 Y29.339 E329.96081
G0 F3600 X21.42 Y29.339
G1 F2100 X-37.258 Y-29.339 E332.85885
G0 F3600 X-36.693 Y-29.339
G1 F2100 X21.986 Y29.339 E335.75691
G0 F3600 X22.551 Y29.339
G1 F2100 X-36.127 Y-29.339 E338.65494
G0 F3600 X-35.561 Y-29.339
G1 F2100 X23.117 Y29.339 E341.55298
G0 F3600 X23.683 Y29.339
G1 F2100 X-34.996 Y-29.339 E344.45103
G0 F3600 X-34.43 Y-29.339
G1 F2100 X24.248 Y29.339 E347.34907
G0 F3600 X24.814 Y29.339
G1 F2100 X-33.864 Y-29.339 E350.2471
G0 F3600 X-33.299 Y-29.339
G1 F2100 X25.38 Y29.339 E353.14516
G0 F3600 X25.945 Y29.339
G1 F2100 X-32.733 Y-29.339 E356.0432
G0 F3600 X-32.167 Y-29.339
G1 F2100 X26.511 Y29.339 E358.94123
G0 F3600 X27.077 Y29.339
G1 F2100 X-31.602 Y-29.339 E361.83929
G0 F3600 X-31.036 Y-29.339
G1 F2100 X27.642 Y29.339 E364.73733
G0 F3600 X28.208 Y29.339
G1 F2100 X-30.47 Y-29.339 E367.63536
G0 F3600 X-29.904 Y-29.339
G1 F2100 X28.774 Y29.339 E370.5334
G0 F3600 X29.339 Y29.339
G1 F2100 X-29.339 Y-29.339 E373.43143
G0 F3600 X-28.773 Y-29.339
G1 F2100 X29.905 Y29.339 E376.32947
G0 F3600 X30.471 Y29.339
G1 F2100 X-28.207 Y-29.339 E379.2275
G0 F3600 X-27.642 Y-29.339
G1 F2100 X31.037 Y29.339 E382.12556
G0 F3600 X31.602 Y29.339
G1 F2100 X-27.076 Y-29.339 E385.0236
G0 F3600 X-26.51 Y-29.339
G1 F2100 X32.168 Y29.339 E387.92163
G0 F3600 X32.734 Y29.339
G1 F2100 X-25.945 Y-29.339 E390.81969
G0 F3600 X-25.379 Y-29.339
G1 F2100 X33.299 Y29.339 E393.71773
G0 F3600 X33.865 Y29.339
G1 F2100 X-24.813 Y-29.339 E396.61576
G0 F3600 X-24.248 Y-29.339
G1 F2100 X34.431 Y29.339 E399.51382
G0 F3600 X34.996 Y29.339
G1 F2100 X-23.682 Y-29.339 E402.41186
G0 F3600 X-23.116 Y-29.339
G1 F2100 X35.562 Y29.339 E405.30989
G0 F3600 X36.128 Y29.339
G1 F2100 X-22.551 Y-29.339 E408.20795
G0 F3600 X-21.985 Y-29.339
G1 F2100 X36.693 Y29.339 E411.10599
G0 F3600 X37.259 Y29.339
G1 F2100 X-21.419 Y-29.339 E414.00402
G0 F3600 X-20.853 Y-29.339
G1 F2100 X37.825 Y29.339 E416.90205
G0 F3600 X38.39 Y29.339
G1 F2100 X-20.288 Y-29.339 E419.80009
G0 F3600 X-19.722 Y-29.339
G1 F2100 X38.956 Y29.339 E422.69812
G0 F3600 X39.522 Y29.339
G1 F2100 X-19.156 Y-29.339 E425.59616
G0 F3600 X-18.591 Y-29.339
G1 F2100 X40.088 Y29.339 E428.49422
G0 F3600 X40.653 Y29.339
G1 F2100 X-18.025 Y-29.339 E431.39225
G0 F3600 X-17.459 Y-29.339
G1 F2100 X41.219 Y29.339 E434.29029
G0 F3600 X41.785 Y29.339
G1 F2100 X-16.894 Y-29.339 E437.18835
G0 F3600 X-16.328 Y-29.339
G1 F2100 X42.35 Y29.339 E440.08638
G0 F3600 X42.916 Y29.339
G1 F2100 X-15.762 Y-29.339 E442.98442
G0 F3600 X-15.197 Y-29.339
G1 F2100 X43.482 Y29.339 E445.88248
G0 F3600 X44.047 Y29.339
G1 F2100 X-14.631 Y-29.339 E448.78051
